X:1
T:Amen
T:D Major              Hezekiah Moors, 1809
T:Transcribed from Province Harmony , 1809. Counter by B. C. Johnston, 2018
T:George Richards, 1792               88. 88. (L. M.)
%%score [ 1 2 3 4 ]
L:1/8
Q:1/4=100
M:2/4
K:D
V:1 treble nm="Tr." snm="Tr."
V:2 treble nm="C." snm="C."
V:3 treble-8 nm="T." snm="T."
V:4 bass nm="B." snm="B."
V:1
 A2 F3/2 G/ | E2 z G | FD FA | d2 z A | B2 e2 |{d} c3 A | B2 e2 | d4 | z2 f2 | d3 e | B2 z c | %11
 A2 ^G2 | A2 z F | G2 E2 | FGA d | A2 G2 | F4 | z4 | A2 F F | F2 z D | E2 E2 | E2 z B | A F z2 | %23
 d2 A2 | f2 df | !fermata!e2 z2 | f4 | g2 z e | f f f f |{f} e2 z f | (d2 g) e | f2 z A | d2 c2 | %33
 d4 | z4 | z4 | A2 A A | B2 z c | A F z2 | f d z2 | B2 e2 | d2 z2 |:[M:3/4] d2 A2 d2 | %43
"_–wait sal–va–tion's plan,                    There  one A – men  for     all __________ is penned,   There one A–men  for    all          is  penned." c4 d2 | %44
 (B2 A2) ^G2 | A6 | z6 | d2 c2 B2 | A4 B[EG] | (F2 A2 BG | A2 F2) D2 | E4 z2 | d2 A2 f2 | %53
 (e2 d2) cB | (A2 e2){d} c2 | d6 :| %56
V:2
"_Faithful and true, the  man  di – vine     On  every  promise  stamps  Amen.       Nor e'er shall  fail   a     sin–gle    line,  Engraved by" A2 F3/2 G/ | %1
 G2 z G | FA AF | A2 z A | B2 B2 |{d} c3 A | G2 c2 | A4 | z2 A2 | B3 c | B2 z c | A2 ^G2 | A2 z A | %13
 G2 E2 | %14
"_love's         e–ter–nal  pen.     Let man be saved, the Father said:  So  be  it!        Je  – sus,  Je –sus cried:  Nay more, the Savior bowed his" F/A/GA G | %15
 A2 G2 | F4 | z4 | A2 A A | F2 z D | E2 G2 | B2 z B | c A z2 | A2 A2 | F2 DF | !fermata!E2 z2 | %26
 F4 | G2 z A | F F F F | %29
"_head. That  man might  live, Christ Jesus died. Amen of God, Amen of man!  Be–gin–ning!   Au–thor!   fi – nal  End!   High praise a–"{F} E2 z F | %30
 B>AG E | F2 z A | A2 G2 | F4 | D2 F F | D4 | z4 | z2 z A | A F z2 | F A z2 | G2 E2 | F2 z2 |: %42
[M:3/4] A2 F2 A2 | %43
"_–wait sal–va–tion's plan,                                                  There one Amen for all is penned,   There one A–men  for    all          is  penned." A4 F2 | %44
 (B2 A2) B2 | A6 | z6 | z6 | z4 G2 | F2 A2 G2 | A2 F2 B2 | A4 z2 | A2 F2 A2 | (G2 F2) cB | %54
 (A2 G2){F} E2 | D6 :| %56
V:3
 d2 A3/2 B/ | G2 z B | AF D2 | A2 z d | B2 Be | e3 f | d2 c2 | d4 | z2 A2 | B3 c | ^G2 z E | %11
 A2 e2 |{d} c2 z A | B2 c2 | d/A/B/c/d G | F2 E2 | D4 | z4 | D2 A A | A2 z F | B2 B2 | B2 z e | %22
 c A z2 | Ad d2 | df d2 | !fermata!e2 z2 | A4 | B2 z A | d d d d |{d} c2 z A | B>AB c | d2 z D | %32
 F2 E2 | D4 | z4 | z4 | d2 F F | G2 z A | F D z2 | d A z2 | g2 g2 | f2 z2 |:[M:3/4] d2 A2 d2 | %43
"_–wait sal–va–tion's plan,  There one Amen  for    all        is      penned, ______________     There one A–men  for    all          is  penned." e4 f2 | %44
 (d2 c2) B2 | A6 | A2 d2 A2 | (B2 A2) GF | (E2 A2) G2 | (F4 GE | F2 D2 F2 | A4) z2 | d2 f2 a2 | %53
 (g2 f2) ed | (A2 g2){f} e2 | d6 :| %56
V:4
 D,2 D,3/2 D,/ | E,2 z E, | F,2 A,2 | D,2 z D, | G,2 E,2 | A,3 D | G,2 A,2 | D,4 | z2 D,2 | %9
 B,,3 A,, | E,2 z A, | D,2 E,2 | A,,2 z D, | G,2 A,2 | D,E,F, B, | A,2 A,,2 | D,4 | z4 | %18
 D,2 D, D, | D,2 z D, | G,2 G,2 | G,2 z E, | A, A, z2 | D,2 D,2 | D,2 B,,2 | !fermata!A,,2 z2 | %26
 D,4 | G,2 z A, | D, D, D, D, | A,,2 z D, | G,>F,E, A, | D,2 z D | A,2 A,,2 | D,4 | D,2 A,, A,, | %35
 D,4 | z4 | z2 z A,, | D, D, z2 | D, D, z2 | G,2 G,,2 | D,2 z2 |:[M:3/4] D2 A,2 D2 | %43
"_–wait sal–va–tion's plan,                                       There one A–men    for      all   is penned,  There one A–men  for    all          is  penned." A,4 D,2 | %44
 E,4 E,2 | A,6 | z6 | z6 | %48
"__________________________________________________________________________________________________\nEdited by B. C. Johnston, 2018.   1. Measure 41, Bass: notes changed from A–A to G–G.    2. Counter part written." A,2 D,2 E,2 | %49
 F,4 E,2 | D,4 B,,2 | A,,4 z2 | D,2 D,2 D,2 | (C,2 D,2) E,2 | (F,2 G,2) A,2 | D,6 :| %56

